!!! OTL: Literature38
!!! Chapter: 5
!!! Section: I
!!! Page: 352
!!! Mode: 
!!! Encoder: DJB
**kern
*staff1
*I"Piano
=1-
*clefG2
*k[f#]
*G:
*met(c)
*M4/4
4r
4r
4r
8r
8b\
=2
4g/
8d/L
8e/J
8.g/L
16a/Jk
8b\L
8dd\J
=3
8a/L
8b/J
8.a/L
16g/Jk
4a/
8r
8a/
=4
4b\
8d/L
8e/J
8.g/L
16a/Jk
8b\L
8dd\J
=5
8.dd\L
16cc\Jk
8f#/L
8f#/J
4.g/
8r
=6
4dd\
8.dd\L
16ee\Jk
4dd\
4b\
=7
!!linebreak:original
8.ee\L
16dd\Jk
8b/L
8g/J
4a/
8r
16b\LL
16cc\JJ
=8
4dd\
8dd\L
8ee\J
4dd\
4b\
=9
8g/L
8a/J
8.g/L
16e/Jk
4g/
8r
8a/
=10
4b\
4d/
8g/L
8a/J
4g/
=11
8a/L
8b/J
8.a/L
16g/Jk
4.a/
8r
=12
8b\L
8b\J
8.cc\L
16cc\Jk
4dd\
4ee\
=13
!!linebreak:original
8ee\L
8dd\J
8.f#/L
16f#/Jk
4.g/
8r
==
*-
